svgs/light/album.svg

<svg xmlns="http://www.w3.org/2000/svg" viewBox="0 0 448 512"><!-- Font Awesome Pro 6.0.0-alpha2 by @fontawesome - https://fontawesome.com License - https://fontawesome.com/license (Commercial License) --><path d="M224 232C210.75 232 200 242.75 200 256S210.75 280 224 280S248 269.25 248 256S237.25 232 224 232ZM384 32H64C28.801 32 0 60.799 0 96V416C0 451.199 28.801 480 64 480H384C419.199 480 448 451.199 448 416V96C448 60.799 419.199 32 384 32ZM416 416C416 433.645 401.645 448 384 448H64C46.355 448 32 433.645 32 416V96C32 78.355 46.355 64 64 64H384C401.645 64 416 78.355 416 96V416ZM224 96C135.75 96 64 167.75 64 256S135.75 416 224 416S384 344.25 384 256S312.25 96 224 96ZM224 384C153.42 384 96 326.578 96 256C96 185.42 153.42 128 224 128S352 185.42 352 256C352 326.578 294.58 384 224 384Z"/></svg>

<svg xmlns="http://www.w3.org/2000/svg" viewBox="0 0 448 512"><!--! Font Awesome Pro 6.0.0-alpha3 by @fontawesome - https://fontawesome.com License - https://fontawesome.com/license (Commercial License) --><path d="M224 232C210.8 232 200 242.8 200 256S210.8 280 224 280S248 269.3 248 256S237.3 232 224 232zM384 32H64c-35.2 0-64 28.8-64 64v320c0 35.2 28.8 64 64 64h320c35.2 0 64-28.8 64-64v-320C448 60.8 419.2 32 384 32zM416 416c0 17.64-14.36 32-32 32H64c-17.64 0-32-14.36-32-32V96c0-17.64 14.36-32 32-32h320c17.64 0 32 14.36 32 32V416zM224 96c-88.25 0-160 71.75-160 160s71.75 160 160 160s160-71.75 160-160S312.3 96 224 96zM224 384c-70.58 0-128-57.42-128-128c0-70.58 57.42-128 128-128s128 57.42 128 128C352 326.6 294.6 384 224 384z"/></svg>
